svg/u1f402.svg

<svg viewBox="0 0 128 128" xmlns="http://www.w3.org/2000/svg">
  <path d="M42.03,78.35l-5.68,2.3c0,0,3.57,15.58,3.07,20.51s-1.13,8.8-2.39,10.49s-1.34,2.96-1.13,3.45 s2.11,2.04,7.04,1.83c4.93-0.21,5.21-2.39,5.63-3.52c0.42-1.13-0.92-8.09-0.56-12.39c0.35-4.29,1.34-6.83,1.41-9.36 s0.35-6.12,0.35-6.12L42.03,78.35z" fill="#51362F"/>
  <path d="M66.74,81.73l-0.14,8.38c0,0,3.73-0.77,7.67-0.28c3.94,0.49,8.66,3.31,9.01,3.31 c0.35,0,2.82-2.25,2.82-2.25s1.48,7.6,1.55,10.07c0.07,2.46,0,5.84-0.63,7.6c-0.63,1.76-1.81,3.99-1.27,4.72 c0.53,0.7,5.14,1.27,7,0.77c3.44-0.91,4.26-1.79,4.36-3.41c0.09-1.41-0.32-6.37-0.46-8.48c-0.14-2.11-0.92-7.18-0.84-8.8 c0.07-1.62,1.55-9.43,1.55-9.43l-1.9-11.12L66.74,81.73z" fill="#51362F"/>
  <path d="M115.17,80.04c0,0-0.92,3.8,0.14,8.09c0.84,3.4,3.52,5.56,4.65,7.46c1.13,1.9,2.39,5.42,3.17,5.35 c0.91-0.08,0.84-8.66-0.49-12.95s-5.56-8.66-5.56-8.66L115.17,80.04z" fill="#51362F"/>
  <path d="M8.39,15.21l3.87,10.49l8.87,3.8L25,25.21c0,0-5.32-2.53-7.25-4.29c-2.39-2.18-3.52-4.36-3.24-5.49 s1.46-0.98,1.41-1.97c-0.07-1.27-2.6-1.76-2.6-1.76L8.39,15.21z" fill="#F6C519"/>
  <path d="M16.62,33.37c0,0-5.31-4.5-7.74-7.6c-2.49-3.18-3.24-6.12-3.03-8.66s1.91-5.41,5.56-5.7 c2.6-0.21,4.22,1.13,4.12,1.41c-0.12,0.31-3.7,0.42-3.91,3.1c-0.2,2.47,0.84,4.93,3.73,7.46s8.8,5.07,8.8,5.07L16.62,33.37z" fill="#B48958"/>
  <path d="M27.67,21.9c-4.04,0.47-3.87,3.66-6.05,4.79c-2.18,1.13-3.73,1.55-5.21,3.24 c-1.48,1.69-1.13,3.1-2.39,4.29s-5.77,5.49-6.12,6.69s5.49,14.15,6.62,15.42c1.13,1.27,5.98,1.55,5.98,1.55s2.75,4.01,5.35,4.93 s4.65,0.77,4.65,0.77s-0.49,4.72,0.99,9.15c1.48,4.43,3.94,9.15,8.73,12.46c4.79,3.31,13.51,4.72,13.51,4.72s2.53,7.32,2.46,10.56 c-0.07,3.24-0.56,6.51-0.77,8.31c-0.12,1.05-2.18,7.11-1.69,8.17s3.06,3.38,6.16,3.52c3.1,0.14,6.51-2.78,6.65-3.84 c0.14-1.06-1.62-9.68-1.69-12.35c-0.07-2.67,1.82-11.72,2.25-13.44c0.42-1.69,1.2-4.01,1.2-4.01s6.34,0.56,12.11-0.92 c5.77-1.48,9.64-3.94,9.64-3.94s-0.92-5.42,0.84-5.49c1.76-0.07,1.63,3.85,2.6,7.6c1.16,4.47,3.59,8.8,5,12.18s2.67,8.17,2.46,10.84 c-0.21,2.67-3.52,7.32-2.89,8.8c0.63,1.48,3.1,1.69,5.14,1.62c2.04-0.07,5.24-0.63,5.84-1.55c0.64-0.98,0.21-8.45,0.56-10.21 c0.35-1.76,2.15-8.09,2.08-10.49s-5.1-2.46-4.68-10.77c0.47-9.22,3.59-16.54,3.59-16.54s0.82,4.68,1.76,7.74 c0.77,2.53,3.17,6.97,4.65,6.26c1.48-0.7-0.39-2.04-1.48-8.52c-0.79-4.71-2.18-16.82-2.46-19.22s-0.93-4.65-1.48-5.49 c-1.68-2.58-4.08-3.8-5.98-5.28s-4.46-3.18-6.12-3.45c-3.86-0.63-10.91,0.35-16.19,0.14C78,39.92,71.1,39.36,68.15,38.65 s-3.94-1.41-3.94-1.41s-11.97-7.81-14.71-9.43c-2.75-1.62-6.69-3.52-9.57-3.17S32.53,21.34,27.67,21.9z" fill="#865B52"/>
  <path d="M53.01,87.64c0,0-1.13-3.52-0.28-6.9c0.76-3.05,3.75-5.5,1.41-6.05c-1.79-0.42-3.78,1.68-4.36,5.14 C49,84.41,53.01,87.64,53.01,87.64z" fill="#51362F"/>
  <path d="M36.96,55.69c0.76,0.93,7.18-0.35,9.22-2.89c2.04-2.53,1.06-9.64,0.77-11.12 c-0.28-1.48-0.77-3.87-0.77-3.87s4.01-1.76,4.08-2.6c0.07-0.84-2.32-7.46-8.45-7.6c-6.12-0.14-11.9-2.32-12.04,0.35 s1.83,5.35,5.84,5.21c4.01-0.14,4.5-2.96,6.69-2.75s5.42,2.96,5,3.38s-9.57-0.56-9.43,1.41c0.14,1.97,4.36,2.32,4.65,2.75 c0.28,0.42,2.67,8.87,1.34,11.76C42.52,52.59,36.33,54.91,36.96,55.69z" fill="#51362F"/>
  <path d="M18.94,14.37c0,0,8.66,1.27,10.91,4.36s3.94,9.39,7.18,9.22c3.98-0.21,4.54-0.39,4.4-4.47 c-0.14-4.08-3.34-9.47-7.57-11.86s-9.7-1.57-12.11-0.7C19.23,11.83,17.61,13.95,18.94,14.37z" fill="#F7C515"/>
  <path d="M18.38,13.88c-0.34,0.75,3.85,2.15,5.28,3.03c3.31,2.04,5.42,4.43,5.84,7.67 c0.42,3.24,0.93,4.11,2.67,5.14c2.39,1.41,6.12,0.47,7.32-0.53c2.32-1.94,1.78-2.86,1.94-3.7c0.07-0.39-2.25,2.01-4.12,1.48 c-1.69-0.48-2.53-1.62-2.82-2.5c-0.42-1.3-1.41-5.53-3.87-7.85S19.3,11.83,18.38,13.88z" fill="#B48958"/>
  <path d="M28.24,35.7c0.74,1.72,0.35,3.94-1.94,4.15c-1.43,0.13-2.68-0.99-3.13-2.76 c-0.44-1.77,0.33-3.49,1.72-3.84C26.29,32.9,27.52,34.02,28.24,35.7z" fill="#0C090C"/>
  <path d="M13.03,46.4c0,0,1.07-8.17-4.05-6.69c-2.18,0.63-4.75,4.96-4.72,6.37c0.06,2.56,1.13,6.93,4.36,8.83 c1.36,0.8,3.2,1.2,3.7,1.41c0.49,0.21,2.22,0.92,2.92,0.46c1.14-0.74,1.41-2.68,1.02-5.6C15.78,47.45,13.03,46.4,13.03,46.4z" fill="#BE9079"/>
  <path d="M5.78,46.5c0.74-1.04,1.34-2.99,2.78-2.32s0.42,3.08-0.49,4.05c-1.02,1.09-2.81,1.75-3.17,0.84 C4.58,48.26,5.01,47.59,5.78,46.5z" fill="#2C2F33"/>
  <path d="M5.75,50.73c-0.56,0.58,0.53,2.04,2.57,2.78s5.47,0.31,5.24-1.13c-0.18-1.13-1.83-0.7-3.59-0.81 C7.65,51.43,6.73,49.7,5.75,50.73z" fill="#2C2F33"/>
</svg>

<svg viewBox="0 0 128 128" xmlns="http://www.w3.org/2000/svg">
  <defs/>
  <path d="M42.03,78.35 L36.35,80.65 C36.35,80.65 39.92,96.23 39.42,101.16 C38.92,106.09 38.29,109.96 37.03,111.65 C35.77,113.34 35.69,114.61 35.9,115.1 C36.11,115.59 38.01,117.14 42.94,116.93 C47.87,116.72 48.15,114.54 48.57,113.41 C48.99,112.28 47.65,105.32 48.01,101.02 C48.36,96.73 49.35,94.19 49.42,91.66 C49.49,89.13 49.77,85.54 49.77,85.54 L42.03,78.35 Z" fill="#51362F"/>
  <path d="M66.74,81.73 L66.6,90.11 C66.6,90.11 70.33,89.34 74.27,89.83 C78.21,90.32 82.93,93.14 83.28,93.14 C83.63,93.14 86.1,90.89 86.1,90.89 C86.1,90.89 87.58,98.49 87.65,100.96 C87.72,103.42 87.65,106.8 87.02,108.56 C86.39,110.32 85.21,112.55 85.75,113.28 C86.28,113.98 90.89,114.55 92.75,114.05 C96.19,113.14 97.01,112.26 97.11,110.64 C97.2,109.23 96.79,104.27 96.65,102.16 C96.51,100.05 95.73,94.98 95.81,93.36 C95.88,91.74 97.36,83.93 97.36,83.93 L95.46,72.81 L66.74,81.73 Z" fill="#51362F"/>
  <path d="M115.17,80.04 C115.17,80.04 114.25,83.84 115.31,88.13 C116.15,91.53 118.83,93.69 119.96,95.59 C121.09,97.49 122.35,101.01 123.13,100.94 C124.04,100.86 123.97,92.28 122.64,87.99 C121.31,83.7 117.08,79.33 117.08,79.33 L115.17,80.04 Z" fill="#51362F"/>
  <path d="M8.39,15.21 L12.26,25.7 L21.13,29.5 L25,25.21 C25,25.21 19.68,22.68 17.75,20.92 C15.36,18.74 14.23,16.56 14.51,15.43 C14.79,14.3 15.97,14.45 15.92,13.46 C15.85,12.19 13.32,11.7 13.32,11.7 L8.39,15.21 Z" fill="#F6C519"/>
  <path d="M16.62,33.37 C16.62,33.37 11.31,28.87 8.88,25.77 C6.39,22.59 5.64,19.65 5.85,17.11 C6.06,14.57 7.76,11.7 11.41,11.41 C14.01,11.2 15.63,12.54 15.53,12.82 C15.41,13.13 11.83,13.24 11.62,15.92 C11.42,18.39 12.46,20.85 15.35,23.38 C18.24,25.91 24.15,28.45 24.15,28.45 L16.62,33.37 Z" fill="#B48958"/>
  <path d="M27.67,21.9 C23.63,22.37 23.8,25.56 21.62,26.69 C19.44,27.82 17.89,28.24 16.41,29.93 C14.93,31.62 15.28,33.03 14.02,34.22 C12.76,35.41 8.25,39.71 7.9,40.91 C7.55,42.11 13.39,55.06 14.52,56.33 C15.65,57.6 20.5,57.88 20.5,57.88 C20.5,57.88 23.25,61.89 25.85,62.81 C28.45,63.73 30.5,63.58 30.5,63.58 C30.5,63.58 30.01,68.3 31.49,72.73 C32.97,77.16 35.43,81.88 40.22,85.19 C45.01,88.5 53.73,89.91 53.73,89.91 C53.73,89.91 56.26,97.23 56.19,100.47 C56.12,103.71 55.63,106.98 55.42,108.78 C55.3,109.83 53.24,115.89 53.73,116.95 C54.22,118.01 56.79,120.33 59.89,120.47 C62.99,120.61 66.4,117.69 66.54,116.63 C66.68,115.57 64.92,106.95 64.85,104.28 C64.78,101.61 66.67,92.56 67.1,90.84 C67.52,89.15 68.3,86.83 68.3,86.83 C68.3,86.83 74.64,87.39 80.41,85.91 C86.18,84.43 90.05,81.97 90.05,81.97 C90.05,81.97 89.13,76.55 90.89,76.48 C92.65,76.41 92.52,80.33 93.49,84.08 C94.65,88.55 97.08,92.88 98.49,96.26 C99.9,99.64 101.16,104.43 100.95,107.1 C100.74,109.77 97.43,114.42 98.06,115.9 C98.69,117.38 101.16,117.59 103.2,117.52 C105.24,117.45 108.44,116.89 109.04,115.97 C109.68,114.99 109.25,107.52 109.6,105.76 C109.95,104 111.75,97.67 111.68,95.27 C111.61,92.87 106.58,92.81 107,84.5 C107.47,75.28 110.59,67.96 110.59,67.96 C110.59,67.96 111.41,72.64 112.35,75.7 C113.12,78.23 115.52,82.67 117,81.96 C118.48,81.26 116.61,79.92 115.52,73.44 C114.73,68.73 113.34,56.62 113.06,54.22 C112.78,51.82 112.13,49.57 111.58,48.73 C109.9,46.15 107.5,44.93 105.6,43.45 C103.7,41.97 101.14,40.27 99.48,40 C95.62,39.37 88.57,40.35 83.29,40.14 C78,39.92 71.1,39.36 68.15,38.65 C65.2,37.94 64.21,37.24 64.21,37.24 C64.21,37.24 52.24,29.43 49.5,27.81 C46.75,26.19 42.81,24.29 39.93,24.64 C37.05,24.99 32.53,21.34 27.67,21.9 Z" fill="#865B52"/>
  <path d="M53.01,87.64 C53.01,87.64 51.88,84.12 52.73,80.74 C53.49,77.69 56.48,75.24 54.14,74.69 C52.35,74.27 50.36,76.37 49.78,79.83 C49,84.41 53.01,87.64 53.01,87.64 Z" fill="#51362F"/>
  <path d="M36.96,55.69 C37.72,56.62 44.14,55.34 46.18,52.8 C48.22,50.27 47.24,43.16 46.95,41.68 C46.67,40.2 46.18,37.81 46.18,37.81 C46.18,37.81 50.19,36.05 50.26,35.21 C50.33,34.37 47.94,27.75 41.81,27.61 C35.69,27.47 29.91,25.29 29.77,27.96 C29.63,30.63 31.6,33.31 35.61,33.17 C39.62,33.03 40.11,30.21 42.3,30.42 C44.49,30.63 47.72,33.38 47.3,33.8 C46.88,34.22 37.73,33.24 37.87,35.21 C38.01,37.18 42.23,37.53 42.52,37.96 C42.8,38.38 45.19,46.83 43.86,49.72 C42.52,52.59 36.33,54.91 36.96,55.69 Z" fill="#51362F"/>
  <path d="M18.94,14.37 C18.94,14.37 27.6,15.64 29.85,18.73 C32.1,21.82 33.79,28.12 37.03,27.95 C41.01,27.74 41.57,27.56 41.43,23.48 C41.29,19.4 38.09,14.01 33.86,11.62 C29.63,9.23 24.16,10.05 21.75,10.92 C19.23,11.83 17.61,13.95 18.94,14.37 Z" fill="#F7C515"/>
  <path d="M18.38,13.88 C18.04,14.63 22.23,16.03 23.66,16.91 C26.97,18.95 29.08,21.34 29.5,24.58 C29.92,27.82 30.43,28.69 32.17,29.72 C34.56,31.13 38.29,30.19 39.49,29.19 C41.81,27.25 41.27,26.33 41.43,25.49 C41.5,25.1 39.18,27.5 37.31,26.97 C35.62,26.49 34.78,25.35 34.49,24.47 C34.07,23.17 33.08,18.94 30.62,16.62 C28.16,14.3 19.3,11.83 18.38,13.88 Z" fill="#B48958"/>
  <path d="M28.24,35.7 C28.98,37.42 28.59,39.64 26.3,39.85 C24.87,39.98 23.62,38.86 23.17,37.09 C22.73,35.32 23.5,33.6 24.89,33.25 C26.29,32.9 27.52,34.02 28.24,35.7 Z" fill="#0C090C"/>
  <path d="M13.03,46.4 C13.03,46.4 14.1,38.23 8.98,39.71 C6.8,40.34 4.23,44.67 4.26,46.08 C4.32,48.64 5.39,53.01 8.62,54.91 C9.98,55.71 11.82,56.11 12.32,56.32 C12.81,56.53 14.54,57.24 15.24,56.78 C16.38,56.04 16.65,54.1 16.26,51.18 C15.78,47.45 13.03,46.4 13.03,46.4 Z" fill="#BE9079"/>
  <path d="M5.78,46.5 C6.52,45.46 7.12,43.51 8.56,44.18 C10,44.85 8.98,47.26 8.07,48.23 C7.05,49.32 5.26,49.98 4.9,49.07 C4.58,48.26 5.01,47.59 5.78,46.5 Z" fill="#2C2F33"/>
  <path d="M5.75,50.73 C5.19,51.31 6.28,52.77 8.32,53.51 C10.36,54.25 13.79,53.82 13.56,52.38 C13.38,51.25 11.73,51.68 9.97,51.57 C7.65,51.43 6.73,49.7 5.75,50.73 Z" fill="#2C2F33"/>
</svg>
